shared/images/iconfont/kb-iconfont-shh-16.svg

<?xml version="1.0" encoding="UTF-8"?>
<svg width="16px" height="16px" viewBox="0 0 16 16" version="1.1" xmlns="http://www.w3.org/2000/svg" xmlns:xlink="http://www.w3.org/1999/xlink">
    <!-- Generator: sketchtool 49.3 (51167) - http://www.bohemiancoding.com/sketch -->
    <title>8D01AC38-3128-4F3D-860D-249DD534A0AA</title>
    <desc>Created with sketchtool.</desc>
    <defs></defs>
    <g id="Colors,-icons" stroke="none" stroke-width="1" fill="none" fill-rule="evenodd">
        <g id="Icons-2" transform="translate(-370.000000, -187.000000)">
            <g id="kb-iconfont-shh-16" transform="translate(370.000000, 187.000000)">
                <g id="kb-iconfont-shh">
                    <rect id="icon-area" x="0" y="0" width="16" height="16"></rect>
                    <path d="M15.0837357,12.0393701 C15.1393537,12.5505977 14.7713361,13.0106423 14.2603713,13.0686258 L6.10174175,13.9944546 C5.58930465,14.0502142 5.13252514,13.6830717 5.07723869,13.1748921 C5.02162063,12.6636645 5.38963829,12.20362 5.90060303,12.1456365 L14.0592326,11.2198076 C14.5716697,11.164048 15.0284492,11.5311905 15.0837357,12.0393701 Z M8.40037093,5.51751725 C8.68705216,5.38959864 8.96973686,5.32564029 9.24843349,5.32564029 C9.4640916,5.32564029 9.65203545,5.37058399 9.81227067,5.46047274 C9.97250589,5.5503615 10.0957385,5.6817354 10.1819723,5.85459838 C10.268206,6.02746137 10.3117982,6.24094395 10.3127502,6.49505254 C10.3137021,6.74916113 10.2627247,7.04043089 10.1598163,7.36887057 L9.33144745,10.078692 C9.2029124,10.4991654 8.81481287,10.7863547 8.37513217,10.7863547 L8.34373249,10.7863547 C8.02847784,10.7863547 7.77291345,10.5307903 7.77291345,10.2155357 C7.77291345,10.1589836 7.78131725,10.1027455 7.79784951,10.048664 L8.61703906,7.36887057 C8.66152259,7.22366566 8.69007634,7.10093478 8.70270116,7.00067425 C8.71532598,6.90041372 8.71268564,6.81916933 8.69478005,6.75693866 C8.67687446,6.69470798 8.6438702,6.65062858 8.59576627,6.62469913 C8.54766235,6.59876969 8.48545643,6.58580516 8.40914664,6.58580516 C8.30629431,6.58580516 8.19232354,6.61778433 8.06723092,6.68174363 C7.94213829,6.74570294 7.81604765,6.83645464 7.68895519,6.95400147 C7.56186273,7.07154831 7.43659267,7.21415813 7.31314125,7.38183523 C7.18968983,7.54951232 7.0785129,7.73533724 6.97960714,7.93931557 L6.31711184,10.0817752 C6.18757325,10.5006931 5.80023339,10.7863547 5.3617445,10.7863547 L5.32785184,10.7863547 C5.01352568,10.7863547 4.75871399,10.531543 4.75871399,10.2172169 C4.75871399,10.1602935 4.76725365,10.1036923 4.78404789,10.0493027 L6.73589441,3.72808439 C6.86530712,3.30897051 7.25274274,3.02311683 7.69138165,3.02311683 L7.72496076,3.02311683 C8.03950927,3.02311683 8.29450122,3.27810878 8.29450122,3.59265729 C8.29450122,3.64949189 8.28599418,3.70600638 8.26926283,3.76032243 L7.5442766,6.11389156 C7.82832778,5.84422531 8.1136897,5.64543585 8.40037093,5.51751725 Z M14.0876077,4.49440041 C14.3742889,4.3664818 14.6569736,4.30252346 14.9356702,4.30252346 C15.1513284,4.30252346 15.3392722,4.34746716 15.4995074,4.43735591 C15.6597426,4.52724467 15.7829753,4.65861856 15.869209,4.83148155 C15.9554427,5.00434454 15.9990349,5.21782712 15.9999869,5.47193571 C16.0009389,5.7260443 15.9499614,6.01731406 15.847053,6.34575374 L15.0186842,9.05557514 C14.8901491,9.47604852 14.5020496,9.76323788 14.0623689,9.76323788 L14.0309692,9.76323788 C13.7157146,9.76323788 13.4601502,9.50767349 13.4601502,9.19241883 C13.4601502,9.13586681 13.468554,9.07962872 13.4850863,9.02554715 L14.3042758,6.34575374 C14.3487593,6.20054883 14.3773131,6.07781795 14.3899379,5.97755742 C14.4025627,5.87729688 14.3999224,5.7960525 14.3820168,5.73382183 C14.3641112,5.67159115 14.3311069,5.62751175 14.283003,5.6015823 C14.2348991,5.57565285 14.1726932,5.56268832 14.0963834,5.56268832 C13.9935311,5.56268832 13.8795603,5.5946675 13.7544677,5.6586268 C13.629375,5.72258611 13.5032844,5.81333781 13.3761919,5.93088464 C13.2490995,6.04843147 13.1238294,6.1910413 13.000378,6.35871839 C12.8769266,6.52639549 12.7657497,6.71222041 12.6668439,6.91619874 L12.0043486,9.05865833 C11.87481,9.4775763 11.4874701,9.76323788 11.0489812,9.76323788 L11.0150886,9.76323788 C10.7007624,9.76323788 10.4459507,9.50842618 10.4459507,9.19410003 C10.4459507,9.13717669 10.4544904,9.08057542 10.4712846,9.0261859 L12.4231312,2.70496756 C12.5525439,2.28585368 12.9399795,2 13.3786184,2 L13.4121975,2 C13.726746,2 13.981738,2.25499195 13.981738,2.56954046 C13.981738,2.62637506 13.9732309,2.68288955 13.9564996,2.7372056 L13.2315133,5.09077473 C13.5155645,4.82110848 13.8009264,4.62231902 14.0876077,4.49440041 Z M4.37114144,8.0347844 C4.3260144,8.06244248 4.27027355,8.07627131 4.20391721,8.07627131 C4.13756087,8.07627131 4.07502361,8.06071387 4.01630356,8.02959854 C3.95758351,7.9984832 3.89471787,7.96304682 3.82770475,7.92328833 C3.76069163,7.88352984 3.68289603,7.84809346 3.59431563,7.81697813 C3.50573522,7.78586279 3.40006699,7.77030535 3.27730776,7.77030535 C3.04837838,7.77030535 2.87617844,7.81611336 2.76070276,7.90773074 C2.64522709,7.99934812 2.5735431,8.11775749 2.54564865,8.2629624 C2.52771651,8.35630841 2.53981278,8.43582419 2.58193785,8.50151213 C2.62406291,8.56720006 2.68493391,8.6259726 2.76455267,8.67783149 C2.84417142,8.72969039 2.9370608,8.777227 3.04322356,8.82044274 C3.14938633,8.86365849 3.25703962,8.9120594 3.36618666,8.96564692 C3.47533369,9.01923445 3.58049644,9.08059989 3.68167806,9.14974508 C3.78285968,9.21889028 3.8686095,9.30359187 3.93893011,9.4038524 C4.00925072,9.50411293 4.0584992,9.62338661 4.08667704,9.76167699 C4.11485488,9.89996738 4.11067964,10.0641848 4.07415119,10.254334 C4.02234722,10.5240003 3.92194123,10.7789694 3.77293023,11.0192489 C3.62391923,11.2595285 3.43609789,11.4686896 3.20946059,11.6467384 C2.98282329,11.8247873 2.72252025,11.9665328 2.42854366,12.0719792 C2.13456706,12.1774257 1.81671595,12.2301481 1.47498079,12.2301481 C1.31240776,12.2301481 1.15481676,12.2128621 1.00220307,12.1782895 C0.849589389,12.1437169 0.708426357,12.0970445 0.578709741,12.0382711 C0.448993126,11.9794977 0.33387855,11.9094893 0.233362561,11.8282437 C0.132846572,11.7469981 0.0550598295,11.6597036 0,11.5663575 L0.49179895,10.9751691 C0.55153146,10.9060239 0.615905441,10.8515729 0.684922823,10.8118144 C0.753940206,10.7720559 0.833238238,10.752177 0.922819299,10.752177 C1.00576473,10.752177 1.07311186,10.7729202 1.12486273,10.8144073 L1.2930522,10.9492398 C1.35342821,10.9976414 1.42773852,11.0425851 1.51598537,11.0840722 C1.60423223,11.1255593 1.72632252,11.1463026 1.88225993,11.1463026 C2.10123585,11.1463026 2.27360257,11.0953088 2.39936525,10.9933196 C2.52512793,10.8913304 2.60129119,10.7711925 2.62785734,10.6329021 C2.6484461,10.525727 2.63801018,10.4375682 2.59654927,10.368423 C2.55508836,10.2992778 2.4943834,10.239641 2.41443256,10.1895107 C2.33448173,10.1393805 2.24192369,10.0944368 2.13675567,10.0546783 C2.03158766,10.0149198 1.92393363,9.9708404 1.81379037,9.92243877 C1.7036471,9.87403713 1.59831758,9.8178575 1.49779864,9.7538982 C1.3972797,9.68993889 1.31152914,9.60955881 1.24054438,9.51275554 C1.16955961,9.41595227 1.12031113,9.2966786 1.09279744,9.15493095 C1.06528376,9.0131833 1.07078729,8.84205151 1.10930819,8.64153045 C1.15712725,8.39260775 1.24757772,8.1506032 1.38066232,7.91550954 C1.51374691,7.68041588 1.68481337,7.4721191 1.89386683,7.29061297 C2.10292029,7.10910683 2.34746468,6.9630398 2.62750733,6.85240749 C2.90754997,6.74177518 3.2200931,6.68645985 3.56514607,6.68645985 C3.91019905,6.68645985 4.20596739,6.74868959 4.45245995,6.87315094 C4.69895251,6.99761229 4.89285005,7.14972944 5.03415837,7.32950694 L4.52643752,7.89995195 C4.46803331,7.96218262 4.41626847,8.00712632 4.37114144,8.0347844 Z" id="Combined-Shape" fill="#000000"></path>
                </g>
            </g>
        </g>
    </g>
</svg>

<svg xmlns="http://www.w3.org/2000/svg" width="16" height="16" viewBox="0 0 16 16">
    <g fill="none" fill-rule="evenodd">
        <path d="M0 0h16v16H0z"/>
        <path fill="#000" d="M15.084 12.04a.934.934 0 0 1-.824 1.029l-8.158.925a.926.926 0 0 1-1.025-.82.934.934 0 0 1 .824-1.028l8.158-.926a.926.926 0 0 1 1.025.82zM8.4 5.517a2.07 2.07 0 0 1 .848-.192c.216 0 .404.045.564.134a.9.9 0 0 1 .37.395c.086.172.13.386.13.64a2.93 2.93 0 0 1-.152.874l-.829 2.71a1 1 0 0 1-.956.707h-.031a.57.57 0 0 1-.546-.737l.819-2.68c.045-.145.073-.268.086-.368a.622.622 0 0 0-.008-.244.206.206 0 0 0-.1-.132.392.392 0 0 0-.186-.04.762.762 0 0 0-.342.097 1.714 1.714 0 0 0-.378.272c-.127.118-.252.26-.376.428a3.55 3.55 0 0 0-.333.557l-.663 2.143a1 1 0 0 1-.955.704h-.034a.57.57 0 0 1-.544-.737l1.952-6.32a1 1 0 0 1 .955-.706h.034a.57.57 0 0 1 .544.737l-.725 2.354c.284-.27.57-.469.856-.596zm5.688-1.024a2.07 2.07 0 0 1 .848-.191c.215 0 .403.044.564.134a.9.9 0 0 1 .37.394c.085.173.129.387.13.64a2.93 2.93 0 0 1-.153.875l-.828 2.71a1 1 0 0 1-.957.707h-.031a.57.57 0 0 1-.546-.737l.82-2.68c.044-.145.072-.268.085-.368a.622.622 0 0 0-.008-.244.206.206 0 0 0-.099-.132.392.392 0 0 0-.187-.04.762.762 0 0 0-.342.097 1.714 1.714 0 0 0-.378.272c-.127.117-.252.26-.376.428a3.55 3.55 0 0 0-.333.557l-.663 2.143a1 1 0 0 1-.955.704h-.034a.57.57 0 0 1-.544-.737l1.952-6.321A1 1 0 0 1 13.38 2h.033a.57.57 0 0 1 .544.737l-.724 2.354c.284-.27.569-.469.856-.597zM4.37 8.034a.315.315 0 0 1-.167.042.395.395 0 0 1-.188-.046 4.513 4.513 0 0 1-.188-.107 1.305 1.305 0 0 0-.234-.106.96.96 0 0 0-.317-.047c-.229 0-.4.046-.516.138a.58.58 0 0 0-.215.355.316.316 0 0 0 .036.239.602.602 0 0 0 .183.176c.08.052.172.1.278.142.106.044.214.092.323.146.11.053.214.115.316.184a.943.943 0 0 1 .405.612c.028.138.024.302-.013.492-.052.27-.152.525-.301.765-.15.24-.337.45-.564.628a2.804 2.804 0 0 1-1.734.583 2.203 2.203 0 0 1-.896-.192 1.59 1.59 0 0 1-.346-.21.983.983 0 0 1-.233-.262l.492-.59a.754.754 0 0 1 .193-.164.468.468 0 0 1 .238-.06c.083 0 .15.02.202.062l.168.135c.06.049.135.094.223.135.088.042.21.062.366.062.22 0 .392-.05.517-.153a.607.607 0 0 0 .229-.36.368.368 0 0 0-.031-.265.543.543 0 0 0-.183-.178 1.562 1.562 0 0 0-.277-.135 6.64 6.64 0 0 1-.323-.133 2.345 2.345 0 0 1-.316-.168.88.88 0 0 1-.405-.599 1.373 1.373 0 0 1 .016-.513 2.38 2.38 0 0 1 .272-.726c.133-.236.304-.444.513-.625a2.52 2.52 0 0 1 .734-.439c.28-.11.592-.166.937-.166.345 0 .641.063.887.187.247.125.44.277.582.457l-.508.57a.802.802 0 0 1-.155.135z"/>
    </g>
</svg>
